; generated by SuperSlicer 2.4 on 2023-12-08 at 03:30:08 UTC


;
;

;
;
; 

; external perimeters extrusion width = 0.42mm
; perimeters extrusion width = 0.44mm
; infill extrusion width = 0.44mm
; solid infill extrusion width = 0.44mm
; top infill extrusion width = 0.42mm
; first layer extrusion width = 0.56mm

; external perimeters extrusion width = 0.42mm
; perimeters extrusion width = 0.44mm
; infill extrusion width = 0.44mm
; solid infill extrusion width = 0.44mm
; top infill extrusion width = 0.42mm
; first layer extrusion width = 0.56mm

; external perimeters extrusion width = 0.42mm
; perimeters extrusion width = 0.44mm
; infill extrusion width = 0.44mm
; solid infill extrusion width = 0.44mm
; top infill extrusion width = 0.42mm
; first layer extrusion width = 0.56mm

; external perimeters extrusion width = 0.42mm
; perimeters extrusion width = 0.44mm
; infill extrusion width = 0.44mm
; solid infill extrusion width = 0.44mm
; top infill extrusion width = 0.42mm
; first layer extrusion width = 0.56mm

; external perimeters extrusion width = 0.42mm
; perimeters extrusion width = 0.44mm
; infill extrusion width = 0.44mm
; solid infill extrusion width = 0.44mm
; top infill extrusion width = 0.42mm
; first layer extrusion width = 0.56mm

; external perimeters extrusion width = 0.42mm
; perimeters extrusion width = 0.44mm
; infill extrusion width = 0.44mm
; solid infill extrusion width = 0.44mm
; top infill extrusion width = 0.42mm
; first layer extrusion width = 0.56mm

; external perimeters extrusion width = 0.42mm
; perimeters extrusion width = 0.44mm
; infill extrusion width = 0.44mm
; solid infill extrusion width = 0.44mm
; top infill extrusion width = 0.42mm
; first layer extrusion width = 0.56mm

; external perimeters extrusion width = 0.42mm
; perimeters extrusion width = 0.44mm
; infill extrusion width = 0.44mm
; solid infill extrusion width = 0.44mm
; top infill extrusion width = 0.42mm
; first layer extrusion width = 0.56mm

; external perimeters extrusion width = 0.42mm
; perimeters extrusion width = 0.44mm
; infill extrusion width = 0.44mm
; solid infill extrusion width = 0.44mm
; top infill extrusion width = 0.42mm
; first layer extrusion width = 0.56mm

; external perimeters extrusion width = 0.42mm
; perimeters extrusion width = 0.44mm
; infill extrusion width = 0.44mm
; solid infill extrusion width = 0.44mm
; top infill extrusion width = 0.42mm
; first layer extrusion width = 0.56mm

; external perimeters extrusion width = 0.42mm
; perimeters extrusion width = 0.44mm
; infill extrusion width = 0.44mm
; solid infill extrusion width = 0.44mm
; top infill extrusion width = 0.42mm
; first layer extrusion width = 0.56mm

; external perimeters extrusion width = 0.42mm
; perimeters extrusion width = 0.44mm
; infill extrusion width = 0.44mm
; solid infill extrusion width = 0.44mm
; top infill extrusion width = 0.42mm
; first layer extrusion width = 0.56mm

; external perimeters extrusion width = 0.42mm
; perimeters extrusion width = 0.44mm
; infill extrusion width = 0.44mm
; solid infill extrusion width = 0.44mm
; top infill extrusion width = 0.42mm
; first layer extrusion width = 0.56mm

; external perimeters extrusion width = 0.42mm
; perimeters extrusion width = 0.44mm
; infill extrusion width = 0.44mm
; solid infill extrusion width = 0.44mm
; top infill extrusion width = 0.42mm
; first layer extrusion width = 0.56mm

; external perimeters extrusion width = 0.42mm
; perimeters extrusion width = 0.44mm
; infill extrusion width = 0.44mm
; solid infill extrusion width = 0.44mm
; top infill extrusion width = 0.42mm
; first layer extrusion width = 0.56mm

; external perimeters extrusion width = 0.42mm
; perimeters extrusion width = 0.44mm
; infill extrusion width = 0.44mm
; solid infill extrusion width = 0.44mm
; top infill extrusion width = 0.42mm
; first layer extrusion width = 0.56mm

; object:{"name":"First_Layer_Patch-0","id":"First_Layer_Patch-0.25mm.stl id:0 copy 0","object_center":[62.500000,287.500000,0.000000],"boundingbox_center":[62.500000,287.500000,0.125000],"boundingbox_size":[25.000000,25.000000,0.250000]}
; object:{"name":"First_Layer_Patch-0","id":"First_Layer_Patch-0.25mm.stl id:1 copy 0","object_center":[137.500000,287.500000,0.000000],"boundingbox_center":[137.500000,287.500000,0.125000],"boundingbox_size":[25.000000,25.000000,0.250000]}
; object:{"name":"First_Layer_Patch-0","id":"First_Layer_Patch-0.25mm.stl id:2 copy 0","object_center":[212.500000,287.500000,0.000000],"boundingbox_center":[212.500000,287.500000,0.125000],"boundingbox_size":[25.000000,25.000000,0.250000]}
; object:{"name":"First_Layer_Patch-0","id":"First_Layer_Patch-0.25mm.stl id:3 copy 0","object_center":[287.500000,287.500000,0.000000],"boundingbox_center":[287.500000,287.500000,0.125000],"boundingbox_size":[25.000000,25.000000,0.250000]}
; object:{"name":"First_Layer_Patch-0","id":"First_Layer_Patch-0.25mm.stl id:4 copy 0","object_center":[62.500000,212.500000,0.000000],"boundingbox_center":[62.500000,212.500000,0.125000],"boundingbox_size":[25.000000,25.000000,0.250000]}
; object:{"name":"First_Layer_Patch-0","id":"First_Layer_Patch-0.25mm.stl id:5 copy 0","object_center":[137.500000,212.500000,0.000000],"boundingbox_center":[137.500000,212.500000,0.125000],"boundingbox_size":[25.000000,25.000000,0.250000]}
; object:{"name":"First_Layer_Patch-0","id":"First_Layer_Patch-0.25mm.stl id:6 copy 0","object_center":[212.500000,212.500000,0.000000],"boundingbox_center":[212.500000,212.500000,0.125000],"boundingbox_size":[25.000000,25.000000,0.250000]}
; object:{"name":"First_Layer_Patch-0","id":"First_Layer_Patch-0.25mm.stl id:7 copy 0","object_center":[287.500000,212.500000,0.000000],"boundingbox_center":[287.500000,212.500000,0.125000],"boundingbox_size":[25.000000,25.000000,0.250000]}
; object:{"name":"First_Layer_Patch-0","id":"First_Layer_Patch-0.25mm.stl id:8 copy 0","object_center":[62.500000,137.500000,0.000000],"boundingbox_center":[62.500000,137.500000,0.125000],"boundingbox_size":[25.000000,25.000000,0.250000]}
; object:{"name":"First_Layer_Patch-0","id":"First_Layer_Patch-0.25mm.stl id:9 copy 0","object_center":[137.500000,137.500000,0.000000],"boundingbox_center":[137.500000,137.500000,0.125000],"boundingbox_size":[25.000000,25.000000,0.250000]}
; object:{"name":"First_Layer_Patch-0","id":"First_Layer_Patch-0.25mm.stl id:10 copy 0","object_center":[212.500000,137.500000,0.000000],"boundingbox_center":[212.500000,137.500000,0.125000],"boundingbox_size":[25.000000,25.000000,0.250000]}
; object:{"name":"First_Layer_Patch-0","id":"First_Layer_Patch-0.25mm.stl id:11 copy 0","object_center":[287.500000,137.500000,0.000000],"boundingbox_center":[287.500000,137.500000,0.125000],"boundingbox_size":[25.000000,25.000000,0.250000]}
; object:{"name":"First_Layer_Patch-0","id":"First_Layer_Patch-0.25mm.stl id:12 copy 0","object_center":[62.500000,62.500000,0.000000],"boundingbox_center":[62.500000,62.500000,0.125000],"boundingbox_size":[25.000000,25.000000,0.250000]}
; object:{"name":"First_Layer_Patch-0","id":"First_Layer_Patch-0.25mm.stl id:13 copy 0","object_center":[137.500000,62.500000,0.000000],"boundingbox_center":[137.500000,62.500000,0.125000],"boundingbox_size":[25.000000,25.000000,0.250000]}
; object:{"name":"First_Layer_Patch-0","id":"First_Layer_Patch-0.25mm.stl id:14 copy 0","object_center":[212.500000,62.500000,0.000000],"boundingbox_center":[212.500000,62.500000,0.125000],"boundingbox_size":[25.000000,25.000000,0.250000]}
; object:{"name":"First_Layer_Patch-0","id":"First_Layer_Patch-0.25mm.stl id:15 copy 0","object_center":[287.500000,62.500000,0.000000],"boundingbox_center":[287.500000,62.500000,0.125000],"boundingbox_size":[25.000000,25.000000,0.250000]}
; plater:{"center":[175.000000,175.000000,0.000000],"boundingbox_center":[175.000000,175.000000,0.125000],"boundingbox_size":[250.000000,250.000000,0.250000]}

M73 P0 R12
;TYPE:Custom
; custom gcode: start_gcode
M104 S0 ; Stops PS/SS from sending temp waits separately
M140 S0
PRINT_START BED=70 EXTRUDER=235 CHAMBER=0
SET_PRINT_STATS_INFO TOTAL_LAYER=1
; custom gcode end: start_gcode
M107
G21 ; set units to millimeters
G90 ; use absolute coordinates
M83 ; use relative distances for extrusion
; custom gcode: start_filament_gcode
; Filament gcode
; custom gcode end: start_filament_gcode
;_TOOLCHANGE 0
;LAYER_CHANGE
;Z:0.25
;HEIGHT:0.25
G1 Z0.25 F7800
; custom gcode: layer_gcode
SET_PRINT_STATS_INFO CURRENT_LAYER=1
; custom gcode end: layer_gcode

G92 E0
M73 P2 R12
G1 E-0.5 F1800
G1 Z0.45 F7800
G1 X45.303 Y45.902
G1 Z0.25
G1 E0.5 F1800
;TYPE:Skirt
;WIDTH:0.52
G1 X44.164 Y47.812 E0.1078
G1 X43.767 Y50 E0.1078
G1 X43.767 Y300 E12.11785
M73 P3 R11
G1 X44.514 Y302.959 E0.14791
G1 X45.902 Y304.697 E0.1078
G1 X47.812 Y305.836 E0.1078
G1 X50 Y306.233 E0.1078
G1 X300 Y306.233 E12.11785
M73 P5 R11
G1 X302.959 Y305.486 E0.14791
G1 X304.697 Y304.098 E0.1078
G1 X305.836 Y302.188 E0.1078
G1 X306.233 Y300 E0.1078
G1 X306.233 Y50 E12.11785
M73 P6 R11
G1 X305.486 Y47.041 E0.14791
G1 X304.098 Y45.303 E0.1078
G1 X302.188 Y44.164 E0.1078
G1 X300 Y43.767 E0.1078
G1 X50 Y43.767 E12.11785
M73 P7 R11
G1 X47.041 Y44.514 E0.14791
G1 X45.303 Y45.902 E0.1078
M104 S235 ; set temperature
G1 E-0.5
G1 Z0.45 F7800
; printing object First_Layer_Patch-0.25mm.stl id:0 copy 0
G1 X50.28 Y275.28
SET_GCODE_OFFSET Z=-0.00 MOVE=1
G1 Z0.25
G1 E0.5 F1800
;TYPE:External perimeter
;WIDTH:0.56
G1 X74.72 Y275.28 E1.28625
G1 X74.72 Y299.72 E1.28625
G1 X50.28 Y299.72 E1.28625
G1 X50.28 Y275.28 E1.28625
;WIPE_START
M73 P8 R11
G1 X50.626 Y275.48 F7800
;WIPE_END
G1 E-0.5 F1800
G1 Z0.45 F7800
G1 X73.545 Y275.432
G1 Z0.25
G1 E0.5 F1800
;TYPE:Solid infill
;WIDTH:0.557599
G1 X74.35 Y276.238 E0.05972
G1 X74.35 Y276.954 E0.03753
G1 X73.046 Y275.65 E0.09665
G1 X72.33 Y275.65 E0.03753
G1 X74.35 Y277.67 E0.14972
G1 X74.35 Y278.386 E0.03753
G1 X71.614 Y275.65 E0.20279
G1 X70.898 Y275.65 E0.03753
G1 X74.35 Y279.102 E0.25586
G1 X74.35 Y279.818 E0.03753
G1 X70.182 Y275.65 E0.30893
G1 X69.466 Y275.65 E0.03753
G1 X74.35 Y280.534 E0.362
G1 X74.35 Y281.25 E0.03753
G1 X68.75 Y275.65 E0.41507
G1 X68.034 Y275.65 E0.03753
G1 X74.35 Y281.966 E0.46813
G1 X74.35 Y282.682 E0.03753
G1 X67.318 Y275.65 E0.5212
G1 X66.601 Y275.65 E0.03753
G1 X74.35 Y283.399 E0.57427
G1 X74.35 Y284.115 E0.03753
G1 X65.885 Y275.65 E0.62734
G1 X65.169 Y275.65 E0.03753
G1 X74.35 Y284.831 E0.68041
G1 X74.35 Y285.547 E0.03753
G1 X64.453 Y275.65 E0.73348
G1 X63.737 Y275.65 E0.03753
G1 X74.35 Y286.263 E0.78655
G1 X74.35 Y286.979 E0.03753
G1 X63.021 Y275.65 E0.83962
G1 X62.305 Y275.65 E0.03753
G1 X74.35 Y287.695 E0.89268
G1 X74.35 Y288.411 E0.03753
G1 X61.589 Y275.65 E0.94575
G1 X60.873 Y275.65 E0.03753
G1 X74.35 Y289.127 E0.99882
M73 P9 R11
G1 X74.35 Y289.843 E0.03753
G1 X60.157 Y275.65 E1.05189
G1 X59.441 Y275.65 E0.03753
G1 X74.35 Y290.559 E1.10496
G1 X74.35 Y291.276 E0.03753
G1 X58.724 Y275.65 E1.15803
G1 X58.008 Y275.65 E0.03753
G1 X74.35 Y291.992 E1.2111
G1 X74.35 Y292.708 E0.03753
G1 X57.292 Y275.65 E1.26416
G1 X56.576 Y275.65 E0.03753
G1 X74.35 Y293.424 E1.31723
G1 X74.35 Y294.14 E0.03753
G1 X55.86 Y275.65 E1.3703
G1 X55.144 Y275.65 E0.03753
G1 X74.35 Y294.856 E1.42337
G1 X74.35 Y295.572 E0.03753
G1 X54.428 Y275.65 E1.47644
M73 P10 R11
G1 X53.712 Y275.65 E0.03753
G1 X74.35 Y296.288 E1.52951
G1 X74.35 Y297.004 E0.03753
G1 X52.996 Y275.65 E1.58258
G1 X52.28 Y275.65 E0.03753
G1 X74.35 Y297.72 E1.63565
G1 X74.35 Y298.436 E0.03753
G1 X51.564 Y275.65 E1.68871
G1 X50.848 Y275.65 E0.03753
G1 X74.35 Y299.152 E1.74178
G1 X74.35 Y299.35 E0.01037
G1 X73.832 Y299.35 E0.02715
G1 X50.65 Y276.168 E1.71805
G1 X50.65 Y276.884 E0.03753
G1 X73.116 Y299.35 E1.66498
M73 P11 R11
G1 X72.4 Y299.35 E0.03753
G1 X50.65 Y277.6 E1.61191
G1 X50.65 Y278.316 E0.03753
G1 X71.684 Y299.35 E1.55885
G1 X70.968 Y299.35 E0.03753
G1 X50.65 Y279.032 E1.50578
G1 X50.65 Y279.748 E0.03753
G1 X70.252 Y299.35 E1.45271
G1 X69.536 Y299.35 E0.03753
G1 X50.65 Y280.464 E1.39964
G1 X50.65 Y281.18 E0.03753
G1 X68.82 Y299.35 E1.34657
G1 X68.104 Y299.35 E0.03753
G1 X50.65 Y281.896 E1.2935
M73 P11 R10
G1 X50.65 Y282.613 E0.03753
G1 X67.387 Y299.35 E1.24043
M73 P12 R10
G1 X66.671 Y299.35 E0.03753
G1 X50.65 Y283.329 E1.18736
G1 X50.65 Y284.045 E0.03753
G1 X65.955 Y299.35 E1.1343
G1 X65.239 Y299.35 E0.03753
G1 X50.65 Y284.761 E1.08123
G1 X50.65 Y285.477 E0.03753
G1 X64.523 Y299.35 E1.02816
G1 X63.807 Y299.35 E0.03753
G1 X50.65 Y286.193 E0.97509
G1 X50.65 Y286.909 E0.03753
G1 X63.091 Y299.35 E0.92202
G1 X62.375 Y299.35 E0.03753
G1 X50.65 Y287.625 E0.86895
G1 X50.65 Y288.341 E0.03753
G1 X61.659 Y299.35 E0.81588
G1 X60.943 Y299.35 E0.03753
G1 X50.65 Y289.057 E0.76281
G1 X50.65 Y289.773 E0.03753
G1 X60.227 Y299.35 E0.70975
G1 X59.511 Y299.35 E0.03753
G1 X50.65 Y290.489 E0.65668
G1 X50.65 Y291.206 E0.03753
G1 X58.794 Y299.35 E0.60361
M73 P13 R10
G1 X58.078 Y299.35 E0.03753
G1 X50.65 Y291.922 E0.55054
G1 X50.65 Y292.638 E0.03753
G1 X57.362 Y299.35 E0.49747
G1 X56.646 Y299.35 E0.03753
G1 X50.65 Y293.354 E0.4444
G1 X50.65 Y294.07 E0.03753
G1 X55.93 Y299.35 E0.39133
G1 X55.214 Y299.35 E0.03753
G1 X50.65 Y294.786 E0.33826
G1 X50.65 Y295.502 E0.03753
G1 X54.498 Y299.35 E0.2852
G1 X53.782 Y299.35 E0.03753
G1 X50.65 Y296.218 E0.23213
G1 X50.65 Y296.934 E0.03753
G1 X53.066 Y299.35 E0.17906
G1 X52.35 Y299.35 E0.03753
G1 X50.65 Y297.65 E0.12599
G1 X50.65 Y298.366 E0.03753
G1 X51.634 Y299.35 E0.07292
G1 X50.917 Y299.35 E0.03753
G1 X50.432 Y298.865 E0.03599
G1 E-0.5
G1 Z0.45 F7800
; stop printing object First_Layer_Patch-0.25mm.stl id:0 copy 0
; printing object First_Layer_Patch-0.25mm.stl id:4 copy 0
G1 X50.432 Y224.72
SET_GCODE_OFFSET Z=-0.04 MOVE=1
G1 Z0.25
G1 E0.5 F1800
;TYPE:External perimeter
;WIDTH:0.56
G1 X50.28 Y224.72 E0.00799
G1 X50.28 Y200.28 E1.28625
G1 X74.72 Y200.28 E1.28625
G1 X74.72 Y224.72 E1.28625
G1 X50.432 Y224.72 E1.27826
;WIPE_START
G1 X50.232 Y224.374 F7800
;WIPE_END
G1 E-0.5 F1800
G1 Z0.45 F7800
G1 X73.545 Y200.432
G1 Z0.25
G1 E0.5 F1800
;TYPE:Solid infill
;WIDTH:0.557599
G1 X74.35 Y201.238 E0.05972
G1 X74.35 Y201.954 E0.03753
G1 X73.046 Y200.65 E0.09665
G1 X72.33 Y200.65 E0.03753
G1 X74.35 Y202.67 E0.14972
G1 X74.35 Y203.386 E0.03753
G1 X71.614 Y200.65 E0.20279
G1 X70.898 Y200.65 E0.03753
G1 X74.35 Y204.102 E0.25586
M73 P14 R10
G1 X74.35 Y204.818 E0.03753
G1 X70.182 Y200.65 E0.30893
G1 X69.466 Y200.65 E0.03753
G1 X74.35 Y205.534 E0.362
G1 X74.35 Y206.25 E0.03753
G1 X68.75 Y200.65 E0.41507
G1 X68.034 Y200.65 E0.03753
G1 X74.35 Y206.966 E0.46813
G1 X74.35 Y207.682 E0.03753
G1 X67.318 Y200.65 E0.5212
G1 X66.601 Y200.65 E0.03753
G1 X74.35 Y208.399 E0.57427
G1 X74.35 Y209.115 E0.03753
G1 X65.885 Y200.65 E0.62734
G1 X65.169 Y200.65 E0.03753
G1 X74.35 Y209.831 E0.68041
G1 X74.35 Y210.547 E0.03753
G1 X64.453 Y200.65 E0.73348
G1 X63.737 Y200.65 E0.03753
G1 X74.35 Y211.263 E0.78655
G1 X74.35 Y211.979 E0.03753
G1 X63.021 Y200.65 E0.83962
G1 X62.305 Y200.65 E0.03753
G1 X74.35 Y212.695 E0.89268
G1 X74.35 Y213.411 E0.03753
G1 X61.589 Y200.65 E0.94575
G1 X60.873 Y200.65 E0.03753
G1 X74.35 Y214.127 E0.99882
G1 X74.35 Y214.843 E0.03753
G1 X60.157 Y200.65 E1.05189
G1 X59.441 Y200.65 E0.03753
G1 X74.35 Y215.559 E1.10496
M73 P15 R10
G1 X74.35 Y216.276 E0.03753
G1 X58.724 Y200.65 E1.15803
G1 X58.008 Y200.65 E0.03753
G1 X74.35 Y216.992 E1.2111
G1 X74.35 Y217.708 E0.03753
G1 X57.292 Y200.65 E1.26416
G1 X56.576 Y200.65 E0.03753
G1 X74.35 Y218.424 E1.31723
G1 X74.35 Y219.14 E0.03753
G1 X55.86 Y200.65 E1.3703
G1 X55.144 Y200.65 E0.03753
G1 X74.35 Y219.856 E1.42337
G1 X74.35 Y220.572 E0.03753
G1 X54.428 Y200.65 E1.47644
G1 X53.712 Y200.65 E0.03753
G1 X74.35 Y221.288 E1.52951
G1 X74.35 Y222.004 E0.03753
G1 X52.996 Y200.65 E1.58258
M73 P16 R10
G1 X52.28 Y200.65 E0.03753
G1 X74.35 Y222.72 E1.63565
G1 X74.35 Y223.436 E0.03753
G1 X51.564 Y200.65 E1.68871
G1 X50.848 Y200.65 E0.03753
G1 X74.35 Y224.152 E1.74178
G1 X74.35 Y224.35 E0.01037
G1 X73.832 Y224.35 E0.02715
G1 X50.65 Y201.168 E1.71805
G1 X50.65 Y201.884 E0.03753
G1 X73.116 Y224.35 E1.66498
G1 X72.4 Y224.35 E0.03753
G1 X50.65 Y202.6 E1.61191
